src/warning.svg

<svg viewBox="0 0 16 16" fill="none" xmlns="http://www.w3.org/2000/svg"><path d="M13.91 11.89L9.35 2.75999C9.22447 2.50948 9.03171 2.29883 8.7933 2.15163C8.55488 2.00442 8.2802 1.92645 8 1.92645C7.7198 1.92645 7.44512 2.00442 7.2067 2.15163C6.96828 2.29883 6.77553 2.50948 6.65 2.75999L2.09 11.89C1.92195 12.2465 1.89893 12.6543 2.02579 13.0274C2.15266 13.4006 2.41949 13.7098 2.77 13.89C2.97942 13.9891 3.2083 14.0404 3.44 14.04H12.56C12.9597 14.0374 13.3422 13.8774 13.6248 13.5948C13.9074 13.3122 14.0674 12.9297 14.07 12.53C14.0626 12.3077 14.0081 12.0896 13.91 11.89ZM12.99 12.83C12.9451 12.9037 12.8819 12.9645 12.8066 13.0066C12.7312 13.0487 12.6463 13.0705 12.56 13.07H3.44C3.31368 13.0526 3.19844 12.9886 3.117 12.8905C3.03555 12.7924 2.99381 12.6673 3 12.54C2.98533 12.4741 2.98533 12.4059 3 12.34L7.55 3.20999C7.61168 3.09397 7.71655 3.0069 7.84194 2.9676C7.96732 2.9283 8.10313 2.93994 8.22 2.99999C8.31971 3.0495 8.40049 3.13028 8.45 3.22999L13 12.34C13.044 12.4141 13.0672 12.4988 13.0672 12.585C13.0672 12.6712 13.044 12.7558 13 12.83H12.99ZM7.5 9.82999H8.5V5.82999H7.5V9.82999ZM7.5 11.83H8.5V10.83H7.5V11.83Z" fill="#111111"/></svg>

<svg xmlns="http://www.w3.org/2000/svg" viewBox="0 0 16 16" fill="#000000"><title>Warning</title><path id="warning_svg__Caution" d="M13.91,11.89,9.35,2.76a1.51,1.51,0,0,0-2.7,0L2.09,11.89a1.52,1.52,0,0,0,.68,2,1.56,1.56,0,0,0,.67.15h9.12a1.52,1.52,0,0,0,1.51-1.51A1.57,1.57,0,0,0,13.91,11.89Zm-.92.94a.5.5,0,0,1-.43.24H3.44A.51.51,0,0,1,3,12.54a.46.46,0,0,1,0-.2L7.55,3.21A.5.5,0,0,1,8.22,3a.51.51,0,0,1,.23.23L13,12.34a.48.48,0,0,1,0,.49Zm-5.49-3h1v-4h-1Zm0,2h1v-1h-1Z"/></svg>
